X:1
T:Title
%%score ( 1 2 ) { 3 | 4 }
L:1/8
Q:1/4=130
M:3/4
K:C
V:1 treble nm="Grand Piano, Staff 1"
V:2 treble 
V:3 bass nm="Choir Pad, Deus Tuorum Militum, LM"
V:4 bass 
V:1
 C2 [CE]4 | [DG]2 [Cc]4 | [CG]2 [DF]2 [CE]2 | [B,D]2 C4 | [Ec]2 [Ee]4 | [Ec]2 A2 B2 | %6
w: By~Grenoble~Antiphoner,~1753 *||||||
 [Ec]2 [B,G]4 | [D^F]2 [B,G]4 | [DG]2 [FA]4 | [FB]2 [Ec]4 | [CG]2 [DF]2 [CE]2 | [B,D]2 [B,E]4 | %12
w: ||||||
 [CG]2 [CA]2 [FB]2 | [Ec]2 G2 F2 | z2 D4 | [B,D]2 [G,C]4- | [G,C]4 z2 |] %17
w: |||||
V:2
 x6 | x6 | x6 | x6 | x6 | z2 D4 | x6 | x6 | x6 | x6 | x6 | x6 | x6 | z2 D4 | [CE]2 C2 B,2 | x6 | %16
 x6 |] %17
V:3
 E,2 G,4 | G,2 E,4 | E,2 A,2 G,2 | G,2 E,4 | G,2 C4 | A,2 ^F,4 | G,2 G,4 | A,2 D,4 | B,2 C4 | %9
 D2 C4 | E,2 A,2 G,2 | A,2 ^G,4 | E,2 F,4 | A,2 D2 G,2 | G,2 A,2 G,2 | G,2 E,4- | E,4 z2 |] %17
V:4
 C,2 C,4 | B,,2 A,,4 | z2 F,2 z2 | G,,2 C,4 | C,2 A,,4 | C,2 D,4 | C,2 E,4 | D,2 G,,4 | G,2 F,4 | %9
 D,2 A,,4 | C,2 D,2 E,2 | F,2 E,4 | C,2 F,,2 D,2 | A,,2 B,,4 | C,2 F,,2 G,,2 | G,,2 C,4- | %16
 C,4 z2 |] %17

